svg/activemq.svg

<?xml version="1.0" encoding="UTF-8"?>
<svg xmlns="http://www.w3.org/2000/svg" xmlns:xlink="http://www.w3.org/1999/xlink" width="22.113001" height="32" viewBox="0 0 22.113001 32">
<path fill-rule="nonzero" fill="rgb(75.686275%, 15.294118%, 40%)" fill-opacity="1" d="M 17.910156 20.40625 L 12.542969 20.390625 L 9.875 15.734375 L 12.570312 11.09375 L 17.9375 11.113281 L 20.605469 15.765625 Z M 17.910156 20.40625 "/>
<path fill-rule="nonzero" fill="rgb(24.313725%, 28.235294%, 62.352941%)" fill-opacity="1" d="M 9.429688 25.273438 L 4.0625 25.257812 L 1.394531 20.601562 L 4.089844 15.960938 L 9.457031 15.980469 L 12.125 20.632812 Z M 9.429688 25.273438 "/>
<path fill-rule="nonzero" fill="rgb(44.313725%, 25.098039%, 60%)" fill-opacity="1" d="M 17.859375 30.164062 L 12.492188 30.144531 L 9.824219 25.492188 L 12.519531 20.851562 L 17.886719 20.867188 L 20.554688 25.523438 Z M 17.859375 30.164062 "/>
<path fill-rule="nonzero" fill="rgb(47.058824%, 57.647059%, 17.254902%)" fill-opacity="1" d="M 9.476562 15.582031 L 4.109375 15.566406 L 1.441406 10.910156 L 4.136719 6.273438 L 9.503906 6.289062 L 12.171875 10.945312 Z M 9.476562 15.582031 "/>
<path fill-rule="nonzero" fill="rgb(81.176471%, 14.117647%, 16.470588%)" fill-opacity="1" d="M 17.902344 10.703125 L 12.535156 10.6875 L 9.867188 6.03125 L 12.5625 1.394531 L 17.929688 1.410156 L 20.597656 6.066406 Z M 17.902344 10.703125 "/>
<path fill-rule="nonzero" fill="rgb(100%, 100%, 100%)" fill-opacity="1" d="M 14.421875 6.054688 C 14.421875 5.839844 14.507812 5.632812 14.660156 5.480469 C 14.8125 5.328125 15.023438 5.242188 15.238281 5.242188 C 15.6875 5.242188 16.050781 5.605469 16.050781 6.054688 C 16.050781 6.503906 15.6875 6.867188 15.238281 6.867188 C 15.023438 6.867188 14.816406 6.78125 14.660156 6.628906 C 14.507812 6.476562 14.421875 6.269531 14.421875 6.054688 M 5.992188 10.925781 C 5.992188 10.476562 6.355469 10.109375 6.804688 10.109375 C 7.253906 10.109375 7.621094 10.472656 7.621094 10.921875 C 7.621094 11.136719 7.535156 11.34375 7.382812 11.496094 C 7.0625 11.8125 6.550781 11.816406 6.230469 11.503906 C 6.078125 11.351562 5.992188 11.140625 5.992188 10.925781 M 5.949219 20.621094 C 5.949219 20.167969 6.3125 19.800781 6.761719 19.800781 C 7.214844 19.796875 7.582031 20.160156 7.585938 20.613281 C 7.585938 21.0625 7.222656 21.429688 6.769531 21.433594 C 6.324219 21.429688 5.957031 21.070312 5.949219 20.621094 M 14.375 25.507812 C 14.363281 25.210938 14.515625 24.929688 14.773438 24.78125 C 15.027344 24.628906 15.347656 24.628906 15.601562 24.78125 C 15.859375 24.933594 16.011719 25.210938 16 25.507812 C 16 25.957031 15.636719 26.320312 15.1875 26.320312 C 14.738281 26.320312 14.375 25.957031 14.375 25.507812 M 14.425781 15.753906 C 14.425781 15.359375 14.707031 15.019531 15.09375 14.949219 C 15.484375 14.882812 15.867188 15.101562 16 15.46875 C 16.136719 15.839844 15.988281 16.253906 15.648438 16.453125 C 15.398438 16.597656 15.089844 16.597656 14.835938 16.453125 C 14.585938 16.308594 14.429688 16.042969 14.425781 15.753906 M 14.425781 15.753906 "/>
</svg>

<svg role="img" viewBox="0 0 22.113 32" height="32" width="22.113" xmlns="http://www.w3.org/2000/svg"><path d="m17.91 20.406-5.367-.015-2.668-4.657 2.695-4.64 5.368.02 2.667 4.652Zm0 0" fill="rgb(75.686275%, 15.294118%, 40%)"/><path d="m9.43 25.273-5.367-.015-2.668-4.656L4.09 15.96l5.367.02 2.668 4.652Zm0 0" fill="rgb(24.313725%, 28.235294%, 62.352941%)"/><path d="m17.86 30.164-5.368-.02-2.668-4.652 2.696-4.64 5.367.015 2.668 4.656Zm0 0" fill="rgb(44.313725%, 25.098039%, 60%)"/><path d="m9.477 15.582-5.368-.016-2.668-4.656 2.696-4.637 5.367.016 2.668 4.656Zm0 0" fill="rgb(47.058824%, 57.647059%, 17.254902%)"/><path d="m17.902 10.703-5.367-.015L9.867 6.03l2.695-4.636 5.368.015 2.668 4.656Zm0 0" fill="rgb(81.176471%, 14.117647%, 16.470588%)"/><path d="M14.422 6.055a.813.813 0 0 1 .816-.813.812.812 0 1 1 0 1.625.813.813 0 0 1-.816-.812m-8.43 4.87a.815.815 0 0 1 1.63-.003.813.813 0 0 1-.24.574.822.822 0 0 1-1.152.008.822.822 0 0 1-.238-.578M5.95 20.62c0-.453.364-.82.813-.82.453-.004.82.36.824.812a.82.82 0 0 1-.816.82.826.826 0 0 1-.82-.812m8.425 4.887a.802.802 0 0 1 .398-.727.807.807 0 0 1 .829 0c.257.153.41.43.398.727a.812.812 0 1 1-1.625 0m.05-9.754a.813.813 0 1 1 1.223.7.816.816 0 0 1-1.222-.7m0 0" fill="rgb(100%, 100%, 100%)"/></svg>
